X: 43349
T: Wrecking, The
R: reel
M: 4/4
K: Gdorian
g|:fdcA BGGA|BGAF DGAg|fdcA BGGA|1 BGAF DGGg:|2 BGAF DGG2||
gBdg abag|fdcB AGFa|g3a bgdg|fdcB AFAc|
gfga bgdg|fdcB AGFa|bgaf gbag|fdcA G3||

